X:1
T:Josph, wie heist dein Kindelein
T:André Vierendeels
T:Melody by Georg Vogler (1625) (Soprano voice)
T:Source : Catechismus---Würzburg---J.Volmari---1652. Editor : André Vierendeels (17/10/17).
T:Notes : Original clef : C1, other voices supplied editorially Original note values have been quartered in 3-beat measures Text Middle German
T:Josph, wie heist dein Kindelein
T:©
T:©
T:©
T:©
C:André Vierendeels
Z:©
%%score [ 1 2 3 ]
L:1/8
Q:1/4=105
M:3/4
K:F
V:1 treble nm="Soprano" snm="S"
V:2 treble-8 nm="Tenor" snm="T"
V:3 bass nm="Bass" snm="B"
V:1
 z2 z2 B2 |"^1)" A4 G2 | ^F4 G2 | A4 B2 | A4 G2 | F4 E2 | D4 G2 | ^F4 d2 | c4 B2 | A4 G2 | A4 B2 | %11
w: Jo-|seph, Jo-|seph, Jo-|sph, wie|heist dein|Kin- de-|lein, Jo-|seph, ge-|wic- kelt|in die|Win- de-|
w: Je-|sus, Je-|sus, Je-|sus, so|heist mein|Kin- de-|lein Je-|sus, mein|Hertz mit|gros- sem|Ver- lan-|
 A4 D2 | E4 F2 | G4 B2 | A2 G2 ^F2 | !fermata!G6 |[M:2/2] A4 B4 | B4 A2 G2 | F2 G2 A4 | A4 B4 | %20
w: lein? Mein|hert- zig|lieb- stes|Kin- de- *|lein,|mein hold-|se- li- ges|Trö- ster- lein,|mein Schät-|
w: gen, springt|auff nach|die- sem|Nah- * *|men,|der fürth|mein Seel ge-|fan- * gen,|ich ruff|
 B4 A2 G2 | F2 G2 A4 :: B4 F2 G2 | c2 B2 G2 A2 |[M:2/4] !fermata!G4 |[M:3/4] z2 z2 d2 | c4 B2 | %27
w: ze- lein, mein|her- ze- lein.|Mein e- del|gül- dens Kin- de-|lein,|heist|Je- sus,|
w: ihn an mit|In- nig- keit,|und sperz mein|Hertz auff weit und|breit,|er-|fülls mit|
 F4 G2 | F4 G2 | A4 D2 | E2- E2 F2 | G4 B2 | A2 G2 ^F2 | G6 :| %34
w: Je- sus|ist sein|Nahm, Heyl-|wer- * tig|er vom|Him- mel ka-|me.|
w: Lieb und|Sus- sig-|keit, O|Je- su mein|Lieb, O|Je- su, mein|Lieb.|
V:2
"^1)" d6 |"^2)" c4 B2 | A4 e2 | d4 d2 | f4 d2 | A4 G2 | A4 B2 | A4 d2 | e4 d2 | f4 B2 | A4 d2 | %11
w: Jo-|seph, Jo-|seph, Jo-|seph, wie|heist dein|Kin- de-|lein, Jo-|seph, ge-|wic- kelt|in die|Win- de-|
w: Je-|sus, Je-|sus, Je-|sus, so|heist das|Kind- lein|Je- sus,|die- ser|Nahm ist|ausz- er-|wehlt, er|
 d4 B2 | c4 d2 | c4 d2 | A2 d4 | !fermata!d6 |[M:2/2] f4 f4 | d4 d2 e2 | d2 e2 A4 | d4 d4 | %20
w: lein? Mein|hert- zig|lieb- stes|Kin- de-|lein,|mein hold-|se- li- ges|Trö- ster- lein,|mein Schät-|
w: bringt das-|Heyl _|_ der|Gan- tze|Welt,|ver- an-|dert un- ser|traw- rig- keit,|mit Fried|
 d4 d2 e2 | f2 d2 d4 :: d4 d2 d2 | e2 d2 c2 d2 |[M:2/4] !fermata!d4 |[M:3/4] d6 | e4 f2 | d4 e2 | %28
w: ze- lein, mein|her- ze- lein.|Mein e- del|gül- dens Kin- de-|lein,|heist|Je- sus,|Je- sus|
w: und Frewd, mit|Si- cher- heit,|wer ha- ben|wil sein Her- tze|rein,|stell|sich bey|sei- nem|
 c4 c2 | f4 d2 | c2 c2 d2 | e4 d2 | c2 d2 d2 | d6 :| %34
w: ist sein|Nahm, Heyl-|wer- * tig|er vom|Him- mel ka-|me.|
w: na- men|je, O|Je- su mein|Lieb, O|Je- su mein|Lieb.|
V:3
"^3)""^1)""^4)" B,6 | F,4 G,2 | D,4 C,2 | D,4 G,2 | D,4 G,2 | F,4 C,2 | D,4 G,2 | D,4 G,2 | %8
w: Jo-|seph, Jo-|seph, Jo-|seph, wie|heist dein|Kin- de-|lein, Jo-|seph, ge-|
w: Je-|su, Je-|su, Je-|su ich|ruff mein|Kin- de-|lein, Je-|sus, hast|
 C,4 G,2 | D,4 G,2 | D,4 G,2 | D,4 G,2 | C,4 B,,2 | C,4 G,2 | D,2 A,4 | !fermata!G,6 | %16
w: wic- kelt|in die|Win- de-|lein? Mein|hert- zig|lieb- stes|Kin- de-|lein,|
w: du Pein,|Angst und|Schmer- *|tzen, ruff|Je- sum|in deim|Her- *|tzen,|
[M:2/2] D,4 B,,4 | B,,4 D,2 C,2 | F,2 C,2 D,4 | D,4 G,4 | B,4 D,2 C,2 | D,2 G,2 D,4 :: %22
w: mein hold-|se- li- ges|Trö- ster- lein,|mein Schät-|ze- lein, mein|her- ze- lein.|
w: und druck|ihn ins Hertz-|häu- se- lein,|du wirst|voll Frewd und|Ju- bel seyn.|
 G,4 D,2 B,,2 | C,2 G,2 G,2 ^F,2 |[M:2/4] !fermata!G,4 |[M:3/4] G,6 | C,4 B,,2 | D,4 C,2 | %28
w: Mein e- del|gül- dens Kin- de-|lein,|heist|Je- sus,|Je- sus|
w: Ach druck ich|dich nur tieff hin-|ein,|wie|wohl solt|mei- ner|
 F,4 E,2 | D,4 G,2 | C,2 C,2 B,,2 | C,4 G,2 | F,2 A,2 A,2 | G,6 :| %34
w: ist sein|Nahm, Heyl-|wer- * tig|er vom|Him- mel ka-|me.|
w: See- len|seyn, O|Je- su mein|Lieb, O|Je- su mein|Lieb.|

